apps/24/view-statistics.svg

<?xml version="1.0" encoding="UTF-8"?>
<svg id="d" width="24" height="24" version="1.1" xmlns="http://www.w3.org/2000/svg" xmlns:cc="http://creativecommons.org/ns#" xmlns:dc="http://purl.org/dc/elements/1.1/" xmlns:rdf="http://www.w3.org/1999/02/22-rdf-syntax-ns#">
	<metadata id="a">
		<rdf:RDF>
			<cc:Work rdf:about="">
				<dc:format>image/svg+xml</dc:format>
				<dc:type rdf:resource="http://purl.org/dc/dcmitype/StillImage"/>
				<dc:title/>
			</cc:Work>
		</rdf:RDF>
	</metadata>
	<defs>
		<style id="current-color-scheme" type="text/css">.ColorScheme-Text {color:#090d11;}.ColorScheme-Background{color:#ffffff;}</style>
	</defs>
	<path id="c" d="m3 2v1h1v-1zm0 3v1h1v-1zm7 0v13h2v-13zm-7 3v1h1v-1zm11 0v10h2v-10zm-8 2v8h2v-8zm-3 1v1h1v-1zm15 2v5h2v-5zm-15 1v1h1v-1zm0 3v1h1v-1zm0 3v1h1v-1zm3 0v1h1v-1zm3 0v1h1v-1zm3 0v1h1v-1zm3 0v1h1v-1zm3 0v1h1v-1zm3 0v1h1v-1z" style="fill-opacity:.75;fill:currentColor" class="ColorScheme-Text"/>
	<path id="b" d="m2 3v1h1v-1zm0 3v1h1v-1zm6 0v14h2v-14zm-6 3v1h1v-1zm10 0v11h2v-11zm-8 2v9h2v-9zm-2 1v1h1v-1zm14 1v7h2v-7zm-14 2v1h1v-1zm18 0v5h2v-5zm-18 3v1h1v-1zm0 3v1h1v-1zm3 0v1h1v-1zm3 0v1h1v-1zm3 0v1h1v-1zm3 0v1h1v-1zm3 0v1h1v-1zm3 0v1h1v-1z" style="fill-opacity:.5;fill:currentColor" class="ColorScheme-Background"/>
</svg>

<?xml version="1.0" encoding="UTF-8" standalone="no"?>
<!-- Created with Inkscape (http://www.inkscape.org/) -->

<svg
   xmlns:dc="http://purl.org/dc/elements/1.1/"
   xmlns:cc="http://creativecommons.org/ns#"
   xmlns:rdf="http://www.w3.org/1999/02/22-rdf-syntax-ns#"
   xmlns:svg="http://www.w3.org/2000/svg"
   xmlns="http://www.w3.org/2000/svg"
   xmlns:sodipodi="http://sodipodi.sourceforge.net/DTD/sodipodi-0.dtd"
   xmlns:inkscape="http://www.inkscape.org/namespaces/inkscape"
   width="24"
   height="24"
   id="svg27665"
   version="1.1"
   inkscape:version="0.48.4 r9939"
   sodipodi:docname="view-statistics.svg">
  <defs
     id="defs27667" />
  <sodipodi:namedview
     id="base"
     pagecolor="#ffffff"
     bordercolor="#666666"
     borderopacity="1.0"
     inkscape:pageopacity="0.0"
     inkscape:pageshadow="2"
     inkscape:zoom="31.678384"
     inkscape:cx="12.950103"
     inkscape:cy="11.790242"
     inkscape:document-units="px"
     inkscape:current-layer="layer1"
     showgrid="true"
     inkscape:window-width="1920"
     inkscape:window-height="1017"
     inkscape:window-x="-5"
     inkscape:window-y="26"
     inkscape:window-maximized="1"
     inkscape:snap-bbox="true"
     inkscape:bbox-paths="true"
     inkscape:bbox-nodes="true"
     inkscape:snap-bbox-edge-midpoints="true"
     inkscape:snap-bbox-midpoints="true"
     inkscape:object-paths="true"
     inkscape:snap-intersection-paths="true"
     inkscape:object-nodes="true"
     inkscape:snap-smooth-nodes="true"
     inkscape:snap-midpoints="true"
     inkscape:snap-object-midpoints="true"
     inkscape:snap-center="true"
     inkscape:snap-global="true"
     showguides="true"
     inkscape:guide-bbox="true"
     fit-margin-top="0"
     fit-margin-left="0"
     fit-margin-right="0"
     fit-margin-bottom="0"
     inkscape:showpageshadow="false"
     inkscape:snap-page="true">
    <inkscape:grid
       type="xygrid"
       id="grid3126"
       empspacing="5"
       visible="true"
       enabled="true"
       snapvisiblegridlinesonly="true"
       originx="1.9507231e-05px"
       originy="25.00001px" />
  </sodipodi:namedview>
  <metadata
     id="metadata27670">
    <rdf:RDF>
      <cc:Work
         rdf:about="">
        <dc:format>image/svg+xml</dc:format>
        <dc:type
           rdf:resource="http://purl.org/dc/dcmitype/StillImage" />
        <dc:title />
      </cc:Work>
    </rdf:RDF>
  </metadata>
  <g
     inkscape:label="Camada 1"
     inkscape:groupmode="layer"
     id="layer1"
     transform="translate(3364.4172,-1851.5163)">
    <path
       style="color:#000000;fill:#27303a;fill-opacity:0.753280819999999968;fill-rule:nonzero;stroke:none;stroke-width:1.41430247;marker:none;visibility:visible;display:inline;overflow:visible;enable-background:accumulate"
       d="M 3 2 L 3 3 L 4 3 L 4 2 L 3 2 z M 3 5 L 3 6 L 4 6 L 4 5 L 3 5 z M 10 5 L 10 18 L 12 18 L 12 5 L 10 5 z M 3 8 L 3 9 L 4 9 L 4 8 L 3 8 z M 14 8 L 14 18 L 16 18 L 16 8 L 14 8 z M 6 10 L 6 18 L 8 18 L 8 10 L 6 10 z M 3 11 L 3 12 L 4 12 L 4 11 L 3 11 z M 18 13 L 18 18 L 20 18 L 20 13 L 18 13 z M 3 14 L 3 15 L 4 15 L 4 14 L 3 14 z M 3 17 L 3 18 L 4 18 L 4 17 L 3 17 z M 3 20 L 3 21 L 4 21 L 4 20 L 3 20 z M 6 20 L 6 21 L 7 21 L 7 20 L 6 20 z M 9 20 L 9 21 L 10 21 L 10 20 L 9 20 z M 12 20 L 12 21 L 13 21 L 13 20 L 12 20 z M 15 20 L 15 21 L 16 21 L 16 20 L 15 20 z M 18 20 L 18 21 L 19 21 L 19 20 L 18 20 z M 21 20 L 21 21 L 22 21 L 22 20 L 21 20 z "
       transform="translate(-3364.4172,1851.5163)"
       id="path3014" />
    <path
       style="color:#000000;fill:#f1f3f5;fill-opacity:0.90288714000000003;fill-rule:nonzero;stroke:none;stroke-width:0.07212036;marker:none;visibility:visible;display:inline;overflow:visible;enable-background:accumulate"
       d="M 2 3 L 2 4 L 3 4 L 3 3 L 2 3 z M 2 6 L 2 7 L 3 7 L 3 6 L 2 6 z M 8 6 L 8 20 L 10 20 L 10 6 L 8 6 z M 2 9 L 2 10 L 3 10 L 3 9 L 2 9 z M 12 9 L 12 20 L 14 20 L 14 9 L 12 9 z M 4 11 L 4 20 L 6 20 L 6 11 L 4 11 z M 2 12 L 2 13 L 3 13 L 3 12 L 2 12 z M 16 13 L 16 20 L 18 20 L 18 13 L 16 13 z M 2 15 L 2 16 L 3 16 L 3 15 L 2 15 z M 20 15 L 20 20 L 22 20 L 22 15 L 20 15 z M 2 18 L 2 19 L 3 19 L 3 18 L 2 18 z M 2 21 L 2 22 L 3 22 L 3 21 L 2 21 z M 5 21 L 5 22 L 6 22 L 6 21 L 5 21 z M 8 21 L 8 22 L 9 22 L 9 21 L 8 21 z M 11 21 L 11 22 L 12 22 L 12 21 L 11 21 z M 14 21 L 14 22 L 15 22 L 15 21 L 14 21 z M 17 21 L 17 22 L 18 22 L 18 21 L 17 21 z M 20 21 L 20 22 L 21 22 L 21 21 L 20 21 z "
       transform="translate(-3364.4172,1851.5163)"
       id="rect2991" />
  </g>
</svg>
